X:544
M:C|
L:1/8
K:D
g|f>d d/d/d d<A F>e|f>d d/d/d c>de>g|1 f>d d/d/d d<A F>D|=C>DE>F G<EE:|2
f<d c>A d<A F>D|=c>DE>F G<EE||

